src/assets/image/footer__logo_letter.svg

<svg width="65" height="38" viewBox="0 0 65 38" fill="none" xmlns="http://www.w3.org/2000/svg">
<path fill-rule="evenodd" clip-rule="evenodd" d="M44 38H44.5034C44.7619 38 45.0038 37.9005 45.1852 37.7316C45.2926 37.6315 45.3788 37.507 45.4346 37.3643L45.6691 36.765H48.2694L48.5039 37.3643C48.5748 37.5457 48.6949 37.6977 48.8453 37.8075C49.0129 37.9299 49.2182 38 49.4352 38H50L47.593 32H46.407L44 38ZM47.8653 35.7314L46.9693 33.419L46.0732 35.7314H47.8653Z" fill="#424C5C"/>
<path d="M40.514 32L39.5 33.6642C39.3953 33.8369 39.2945 33.9762 39.1976 34.0821C39.1273 34.1589 39.0591 34.2181 38.993 34.2599C38.8357 34.3533 38.6026 34.4 38.2937 34.4H38.1976V32H37V38H38.1976V35.4686H38.3112C38.4452 35.4686 38.5705 35.4628 38.6871 35.4511C38.8094 35.4394 38.926 35.419 39.0367 35.3898L40.3353 37.5204C40.4409 37.6935 40.5943 37.8274 40.7729 37.9092C40.9015 37.9681 41.0432 38 41.1892 38H42L40.0157 34.7504C40.1323 34.6161 40.2517 34.4613 40.3741 34.2861C40.5023 34.1051 40.6393 33.8949 40.785 33.6555L41.799 32H40.514Z" fill="#424C5C"/>
<path fill-rule="evenodd" clip-rule="evenodd" d="M33.7987 35.2364C34.0075 35.1112 34.1781 34.9579 34.3107 34.7766C34.5113 34.5022 34.6116 34.1781 34.6116 33.8044C34.6116 33.2613 34.3883 32.8263 33.9417 32.4993C33.5016 32.1664 32.9191 32 32.1942 32H30V38H31.301V35.7051H32.2427L33.2793 37.4678C33.3648 37.6133 33.487 37.7346 33.6324 37.8244C33.8143 37.9368 34.0326 38 34.2613 38H35L33.4466 35.4073C33.574 35.3577 33.6914 35.3008 33.7987 35.2364ZM32.9903 33.2876C32.8427 33.1687 32.6499 33.0982 32.4121 33.0761C32.358 33.0711 32.3015 33.0686 32.2427 33.0686H31.301V34.6453H32.2427C32.3015 34.6453 32.358 34.6428 32.4121 34.638C32.6499 34.6169 32.8427 34.5492 32.9903 34.435C33.178 34.2891 33.2718 34.0964 33.2718 33.8569C33.2718 33.6175 33.178 33.4277 32.9903 33.2876Z" fill="#424C5C"/>
<path fill-rule="evenodd" clip-rule="evenodd" d="M27.1404 37.1489C26.5673 37.7163 25.8539 38 25 38C24.1461 38 23.4327 37.7163 22.8596 37.1489C22.2865 36.5759 22 35.861 22 35.0043C22 34.1475 22.2865 33.4326 22.8596 32.8596C23.4327 32.2865 24.1461 32 25 32C25.8539 32 26.5673 32.2865 27.1404 32.8596C27.7135 33.4326 28 34.1475 28 35.0043C28 35.861 27.7135 36.5759 27.1404 37.1489ZM23.7192 33.6255C24.063 33.2567 24.49 33.0723 25 33.0723C25.51 33.0723 25.9341 33.2567 26.2722 33.6255C26.6161 33.9943 26.788 34.4539 26.788 35.0043C26.788 35.5546 26.6161 36.0142 26.2722 36.383C25.9341 36.7461 25.51 36.9277 25 36.9277C24.49 36.9277 24.063 36.7461 23.7192 36.383C23.3811 36.0142 23.212 35.5546 23.212 35.0043C23.212 34.4539 23.3811 33.9943 23.7192 33.6255Z" fill="#424C5C"/>
<path d="M17.0894 33.0723C16.5642 33.0723 16.1245 33.2567 15.7704 33.6255C15.4222 33.9943 15.2481 34.4539 15.2481 35.0043C15.2481 35.5546 15.4222 36.0142 15.7704 36.383C16.1245 36.7461 16.5642 36.9277 17.0894 36.9277C17.4848 36.9277 17.8271 36.8255 18.1162 36.6213C18.4054 36.4113 18.6061 36.1277 18.7182 35.7702H18.0462C17.4323 35.7702 16.9566 35.2908 16.9566 34.7319H19.9752C20.0887 35.6051 19.8121 36.5216 19.1608 37.1745C18.6061 37.7248 17.9156 38 17.0894 38C16.2101 38 15.4754 37.7163 14.8852 37.1489C14.2951 36.5759 14 35.861 14 35.0043C14 34.1475 14.2951 33.4326 14.8852 32.8596C15.4754 32.2865 16.2101 32 17.0894 32C17.9156 32 18.6739 32.3121 19.2759 32.9021L18.5323 33.6851C18.1117 33.2807 17.6379 33.0723 17.0894 33.0723Z" fill="#424C5C"/>
<path d="M64.9958 5.20004V0H45.0625V5.20004H52.4292V13.8668C52.4292 16.26 54.3693 18.2001 56.7625 18.2001H57.6292V5.20004H64.9958Z" fill="#424C5C"/>
<path d="M57.6297 20.7998H52.4297V25.9998H57.6297V20.7998Z" fill="#424C5C"/>
<path d="M27.7308 25.9998C29.1668 25.9998 30.3308 24.8357 30.3308 23.3998C30.3308 21.9639 29.1668 20.7998 27.7308 20.7998C26.2949 20.7998 25.1309 21.9639 25.1309 23.3998C25.1309 24.8357 26.2949 25.9998 27.7308 25.9998Z" fill="#424C5C"/>
<path d="M45.0663 26.0001H41.5608C40.2188 26.0001 38.9525 25.3783 38.1319 24.3164L32.0664 16.4668H37.7572L45.0663 26.0001Z" fill="#424C5C"/>
<path d="M42.8973 8.88332C42.8973 10.9746 41.5974 15.1667 37.7533 16.4667C36.9881 16.7615 35.9641 16.9 35.0974 16.9C34.2308 16.9 32.0641 16.4667 32.0641 16.4667C35.7044 15.7135 37.6975 12.1333 37.6975 9.1C37.6975 6.93333 36.1809 5.2 34.0141 5.2C32.0641 5.19999 30.3308 6.77083 30.3308 8.88333V18.2H29.4642C27.071 18.2 25.1309 16.2599 25.1309 13.8667V8.88332C25.1309 8.49331 25.1742 7.10665 25.2609 6.71665C26.1866 3.09076 29.7582 0 33.5808 0C33.8263 0 33.9852 0 34.2308 0C39.225 0.110984 42.8973 4.09401 42.8973 8.88332Z" fill="#424C5C"/>
<path d="M23.4 26H21.0246C19.3078 26 17.7529 24.9865 17.06 23.4158L11.6998 11.2667L6.34002 23.4158C5.64706 24.9865 4.09215 26 2.37536 26H0L11.2668 0H12.1335L23.4 26Z" fill="#424C5C"/>
<path d="M11.6996 20.7998L9.09961 25.9998H14.2996L11.6996 20.7998Z" fill="#424C5C"/>
</svg>

<svg width="65" height="38" fill="none" xmlns="http://www.w3.org/2000/svg"><path fill-rule="evenodd" clip-rule="evenodd" d="M44 38h.503a1 1 0 0 0 .932-.636l.234-.599h2.6l.235.6a.998.998 0 0 0 .931.635H50l-2.407-6h-1.186L44 38Zm3.865-2.269-.896-2.312-.896 2.312h1.792Z" fill="#424C5C"/><path d="M40.514 32 39.5 33.664a2.687 2.687 0 0 1-.302.418c-.07.077-.139.136-.205.178-.157.093-.39.14-.7.14h-.095V32H37v6h1.198v-2.531h.113c.134 0 .26-.006.376-.018.122-.012.239-.032.35-.061l1.298 2.13a1 1 0 0 0 .854.48H42l-1.984-3.25c.116-.134.236-.289.358-.464.128-.18.265-.391.411-.63L41.799 32h-1.285Z" fill="#424C5C"/><path fill-rule="evenodd" clip-rule="evenodd" d="M33.799 35.236a1.603 1.603 0 0 0 .813-1.432c0-.543-.224-.978-.67-1.305-.44-.333-1.023-.499-1.748-.499H30v6h1.301v-2.295h.942l1.036 1.763c.086.145.208.267.353.356.182.113.4.176.63.176H35l-1.553-2.593c.127-.05.244-.106.352-.17Zm-.809-1.948a1.055 1.055 0 0 0-.578-.212 1.842 1.842 0 0 0-.17-.007h-.941v1.576h.942c.058 0 .115-.002.17-.007a1.08 1.08 0 0 0 .577-.203.696.696 0 0 0 .282-.578c0-.24-.094-.43-.282-.57ZM27.14 37.149c-.573.567-1.286.851-2.14.851-.854 0-1.567-.284-2.14-.851-.573-.573-.86-1.288-.86-2.145 0-.856.287-1.571.86-2.144.573-.574 1.286-.86 2.14-.86.854 0 1.567.286 2.14.86.573.573.86 1.288.86 2.144 0 .857-.287 1.572-.86 2.145Zm-3.42-3.523a1.68 1.68 0 0 1 1.28-.554c.51 0 .934.185 1.272.553.344.37.516.829.516 1.38 0 .55-.172 1.01-.516 1.378a1.665 1.665 0 0 1-1.272.545c-.51 0-.937-.182-1.28-.545-.339-.369-.508-.828-.508-1.379 0-.55.17-1.01.507-1.378Z" fill="#424C5C"/><path d="M17.09 33.072c-.526 0-.965.185-1.32.553-.348.37-.522.829-.522 1.38 0 .55.174 1.01.522 1.378.355.363.794.545 1.32.545.395 0 .737-.102 1.026-.307.29-.21.49-.493.602-.85h-.672c-.614 0-1.09-.48-1.09-1.04h3.02a2.928 2.928 0 0 1-.815 2.444c-.555.55-1.245.825-2.072.825-.879 0-1.614-.284-2.204-.851-.59-.573-.885-1.288-.885-2.145 0-.856.295-1.571.885-2.144.59-.574 1.325-.86 2.204-.86.827 0 1.585.312 2.187.902l-.744.783c-.42-.404-.894-.613-1.443-.613ZM64.996 5.2V0H45.063v5.2h7.366v8.667a4.333 4.333 0 0 0 4.334 4.333h.866v-13h7.367ZM57.63 20.8h-5.2V26h5.2v-5.2ZM27.73 26a2.6 2.6 0 1 0 0-5.2 2.6 2.6 0 0 0 0 5.2ZM45.066 26h-3.505a4.333 4.333 0 0 1-3.43-1.684l-6.065-7.85h5.691L45.067 26Z" fill="#424C5C"/><path d="M42.897 8.883c0 2.092-1.3 6.284-5.144 7.584-.765.295-1.789.433-2.656.433-.866 0-3.033-.433-3.033-.433 3.64-.753 5.633-4.334 5.633-7.367 0-2.167-1.516-3.9-3.683-3.9-1.95 0-3.683 1.57-3.683 3.683V18.2h-.867a4.333 4.333 0 0 1-4.333-4.333V8.883c0-.39.043-1.776.13-2.166C26.187 3.09 29.758 0 33.58 0h.65c4.994.111 8.666 4.094 8.666 8.883ZM23.4 26h-2.375a4.333 4.333 0 0 1-3.965-2.584l-5.36-12.15-5.36 12.15A4.333 4.333 0 0 1 2.375 26H0L11.267 0h.867L23.4 26Z" fill="#424C5C"/><path d="M11.7 20.8 9.1 26h5.2l-2.6-5.2Z" fill="#424C5C"/></svg>
